src/assets/icons/medium.svg

<svg viewBox="0 0 640 640" xmlns="http://www.w3.org/2000/svg"><path d="m465.4 96c43.4 0 78.6 35.2 78.6 78.6v83.8c-1.9-.1-3.8-.2-5.7-.2h-.4c-10 0-22.3 2.4-31.1 6.8-10 4.6-18.7 11.5-26 20.6-11.8 14.6-18.9 34.3-20.6 56.4-.1.7-.1 1.3-.2 2s-.1 1.2-.1 1.9c-.1 1.2-.1 2.4-.1 3.6 0 1.9-.1 3.8 0 5.8 1.2 50.1 28.2 90.2 76.3 90.2 2.7 0 5.3-.1 7.9-.4v20.4c0 43.4-35.2 78.6-78.6 78.6l-290.8-.1c-43.4 0-78.6-35.2-78.6-78.6v-290.8c0-43.4 35.2-78.6 78.6-78.6zm-287.1 106.9.3.1c13.2 3 19.8 7.4 19.8 23.4v187.2c0 16-6.7 20.4-19.9 23.4l-.3.1v2.8h52.8v-2.8l-.3-.1c-13.2-3-19.9-7.4-19.9-23.4v-176.3l86.1 202.5h4.9l88.6-208.2v186.6c-1.1 12.6-7.8 16.5-19.7 19.2l-.3.1v2.7h91.9v-2.7l-.3-.1c-11.9-2.7-18.7-6.6-19.9-19.2l-.1-191.8h.1c0-16 6.7-20.4 19.9-23.4l.3-.1v-2.7h-72.2l-67 157.4-67-157.4h-77.8zm365.7 201.4c-25.1-7.4-43-35.1-41.2-67.8h41.1v67.8zm-6.4-135.6c2.3 0 4.4.3 6.4.9v57.4h-40.2c1.5-33.6 13.6-57.9 33.8-58.3z"/></svg>

<svg xmlns="http://www.w3.org/2000/svg" viewBox="0 0 640 640"><!--!Font Awesome Free 7.0.1 by @fontawesome - https://fontawesome.com License - https://fontawesome.com/license/free Copyright 2025 Fonticons, Inc.--><path d="M465.4 96C508.8 96 544 131.2 544 174.6L544 258.4C542.1 258.3 540.2 258.2 538.3 258.2L537.9 258.2C527.9 258.2 515.6 260.6 506.8 265C496.8 269.6 488.1 276.5 480.8 285.6C469 300.2 461.9 319.9 460.2 342C460.1 342.7 460.1 343.3 460 344C459.9 344.7 459.9 345.2 459.9 345.9C459.8 347.1 459.8 348.3 459.8 349.5C459.8 351.4 459.7 353.3 459.8 355.3C461 405.4 488 445.5 536.1 445.5C538.8 445.5 541.4 445.4 544 445.1L544 465.5C544 508.9 508.8 544.1 465.4 544.1L174.6 544C131.2 544 96 508.8 96 465.4L96 174.6C96 131.2 131.2 96 174.6 96L465.4 96zM178.3 202.9L178.6 203C191.8 206 198.4 210.4 198.4 226.4L198.4 413.6C198.4 429.6 191.7 434 178.5 437L178.2 437.1L178.2 439.9L231 439.9L231 437.1L230.7 437C217.5 434 210.8 429.6 210.8 413.6L210.8 237.3L296.9 439.8L301.8 439.8L390.4 231.6L390.4 418.2C389.3 430.8 382.6 434.7 370.7 437.4L370.4 437.5L370.4 440.2L462.3 440.2L462.3 437.5L462 437.4C450.1 434.7 443.3 430.8 442.1 418.2L442 226.4L442.1 226.4C442.1 210.4 448.8 206 462 203L462.3 202.9L462.3 200.2L390.1 200.2L323.1 357.6L256.1 200.2L178.3 200.2L178.3 202.9zM544 404.3C518.9 396.9 501 369.2 502.8 336.5L502.8 336.5L543.9 336.5L543.9 404.3zM537.6 268.7C539.9 268.7 542 269 544 269.6L544 327L503.8 327C505.3 293.4 517.4 269.1 537.6 268.7z"/></svg>
